X:1
T:Das Hertz in mir gar wolgemut
T:Conrad Hagius
T:Source : Lobgesänge---Ursell---C.Sutorius---1606. Editor : André Vierendeels (26/05/17).
T:Notes : Original clefs : G2, C2, C3 F3 Original note values have been halved Editorial accidentals above the staff Text Middle German  (Exultavit cor meum in Domino) (1 Reg.2)
T:Das Hertz in mir gar wolgemut
T:b
T:©
T:©
T:©
C:Conrad Hagius
Z:©
%%score [ 1 2 3 4 ]
L:1/8
Q:1/4=120
M:2/2
K:F
V:1 treble nm="Soprano" snm="S"
V:2 treble nm="Alto" snm="A"
V:3 treble-8 nm="Tenor" snm="T"
V:4 bass nm="Bass" snm="B"
V:1
"^1)" G4 G2 B2 | A2 G2 B2 c2 | d4 z4 | d4 d2 e2 | f2 e2 d4 | c4 B4 | z4 B4 | d2 d2 c2 B2 | %8
w: Das Hertz in|mir gar wol- ge-|mut,|sich hoch im|Her- ren fre|wen thut,|mein|horn ein- mal zu|
w: Mein mund hat|weit er- öff- net|sich,|auff die so|feind- lich has-|sen mich,|und|redt ge- gen die|
 A2 G2 ^F4 | z4 ^F4 | G2 A2 B2 B2 | c2 B2 A4 | z4 d4 | d2 c2 B4 | d4 _e2 d2 | c4 B4 | z4 d4 | %17
w: sie- ser frist,|herr-|li- cher weisz er-|ho- ben ist,|hat|sich durch mei-|nen Gott und|Her- ren,|her-|
w: fein- de mein,|die|mir ohn fug zu-|wi- der sehn,|denn|zwar mein Hertz|on ei- nig|sche- wen|thut|
 G2 G2 ^F2 G2 | A2 B2 A4 | G8 |] %20
w: für ge- than mit|ho- hen eh-|ren.|
w: sich in dei- nem|heil er- fre-|wen.|
V:2
"^2)""^1)" D4 D2 G2 | ^F2 G2 G2 A2 | B4 z4 | B4 B2 G2 | cA c3 B B2- | BA/G/ A2 F4 | z4 F4 | %7
w: Das Hertz in|mir gar wol- ge-|mut,|sich hoch im|Her- ren fre- * *|* * * wen thut,|mein|
w: Nie- mand ist|hei- lig, wie der|Herr,|ja aus- ser|ihm ist kei- * *|* * * ner mehr,|mech-|
 B2 B2 A2 F2 | F2 D2 D4 | z4 D4 | D2 F2 F2 G2 | A2 G2 E4 | z4 F4 | B2 A2 F4- | F2 G2 G2 F2 | %15
w: horn ein- mal zu|die- ser frist,|herr-|li- cher weisz er-|ho- ben ist,|hat|sich durch mei-|* nen Gott und|
w: tig und starck ist|un- ser Gott,|wie|er viel- mal be-|wie- sen hat,|auch|mag ich him-|* mel und auff|
 F4 D4 | z4 F4 |"^-natural" _E2 C2 D2 E2 | F2 D2 D4 | =B,8 |] %20
w: Her- ren,|her-|für ge- than mit|ho- hen eh-|ren.|
w: er- den,|ihm|nie- mand gleich ge-|fun- den wer-|den.|
V:3
"^3)""^1)" =B4 B2 d2 | d3 d d2 f2 | f4 z4 | f4 g2 e2 | a2 a2 f4- | f2 f2 d4 | z4 B4 | g2 f2 f2 d2 | %8
w: Das Hertz in|mir gar wol- ge-|mut,|sich hoch im|Her- ren fre-|* wen thut,|mein|horn ein- mal zu|
w: So pran- get|nicht on masz und|ziel,|mit üm- lich|ho- hen wor-|* ten viel,|was|ihr bisz- her mit|
 c2 B2 A4 | z4 A4 | =B2 c2 d2 d2 | f2 d2 ^c4 | z4 d4 | g2 e2 d4- | d2 B2 cB B2- | BA/G/ A2 B4 | %16
w: die- ser frist,|herr-|li- cher weisz er-|ho- ben ist;|hat|sich durch mei-|* nen Gott und Her-|* * * * ren,|
w: gros- ser pracht,|für|red ge- führt habt|on be- dacht,|sol|e- wer mund|_ nun al- ler mas-|* * * * sen,|
 z4 B4 | B2 G2 A2 c2 | c2 B G2 ^F/E/ F2 | G8 |] %20
w: her-|für ge- than mit|ho- hen eh- * * *|ren.|
w: nach|die- ser zeit hin-|fah- ren las- * * *|sen.|
V:4
"^4)""^1)""^5)" G,4 G,2 G,2 | D,2 G,2 G,2 F,2 | B,4 z4 | B,4 G,2 C2 | F,2 A,2 B,4 | F,4 B,,4 | %6
w: Das Hertz in|mir gat wol- ge-|mut,|sich hoch im|Her- ren fre-|wen thut,|
w: Den Gott ist|auch ein Herr für-|war,|der al- le|ding weisz of-|fen- bar,|
 z4 B,4 | G,2 B,2 F,2 B,,2 | F,2 G,2 D,4 | z4 D,4 |"^b" G,2 F,2 B,2 B,2 | F,2 G,2 A,4 | z4 B,4 | %13
w: mein|horn ein- mal zu|die- ser frist,|herr-|li- cher weisz er-|ho- ben ist,|hat|
w: nichts|mag für ihm ver-|bor- gen seyn,|ja|die- ser mech- tig|Gott al- lein,|kan|
 G,2 A,2 B,4- | B,2 G,2 _E,2 B,,2 | F,4 B,,4 | z4 B,,4 | _E,2 E,2 D,2 C,2 | F,2 G,2 D,4 | G,,8 |] %20
w: sich durch mei-|* nen Gott unh|Her- ren,|her-|für ge- than mit|ho- hen eh-|ren.|
w: sein ge- dan-|* cken vol- len-|brin- gen,|waq|er für- nimbt in|al- len din-|gen.|

